X: 21766
T: King Of The Mountain
R: reel
M: 4/4
K: Dmajor
|:e4 eede|efff fed2|AB3 BBAB|def2 eed2|
e4 eede|a2f2 fed2|AB3 BBAB|1 def2 eed2:|2 def2 edcd||
|:B4 BBAB|def2 eed2|e4 eede|efaa abaf|g2gf d2a2-|
aggf gfd2|1 ABde efed-|deee efed:|2 ABde f2d2-|dABd fedf||

